X:1
T: Neil Gow's Recovery
T: Niel Gow's Recovery
T:2nd setting
R:Strathspey
Q: 128
K:A
M:4/4
L:1/16
|:D2|C1/2D1/2E3 E3c cBAG A4|F1/2G1/2A3 E3C DB,3 B,3D|C1/2D1/2E3 E3c cBAG A4|F1/2G1/2A3 E3D CA,3 A,2D2|
C1/2D1/2E3 E3c cBAG A4|F1/2G1/2A3 E3C DB,3 B,3D|C1/2D1/2E3 E3c cBAG A4|F1/2G1/2A3 E3D CA,3 A,2e2|
c3e A3e cA3 A3=g|f3d e3c dB3 B3e|c3e A3e cA3 A3=g|f3d e3d cA3 A2e2|
c3e A3e cA3 A3=g|f3d e3c dB3 B3d|ce3 Bc3 Ad3 c3B|AF3 E3D CA,3 A,3:|
